packages/dnb-ui-lib/assets/icons/widget_ios.svg

<svg width="16" height="16" viewBox="0 0 16 16" fill="none" xmlns="http://www.w3.org/2000/svg">
<path d="M15 7.61447C15 7.862 14.9017 8.09939 14.7267 8.27444L8.27315 14.7267C8.09813 14.9017 7.86078 15 7.6133 15C7.36581 15 7.12846 14.9017 6.95344 14.7267L1.27326 9.04799C1.09829 8.87294 1 8.63554 1 8.38802C1 8.14049 1.09829 7.9031 1.27326 7.72804L3.33341 5.66753C2.87193 5.66753 2.42081 5.53066 2.0371 5.27423C1.65339 5.0178 1.35433 4.65333 1.17772 4.2269C1.00112 3.80047 0.954915 3.33123 1.04495 2.87854C1.13498 2.42584 1.3572 2.01002 1.68352 1.68364C2.00984 1.35726 2.42559 1.135 2.8782 1.04495C3.33082 0.954907 3.79997 1.00112 4.22632 1.17776C4.65268 1.35439 5.01709 1.65351 5.27347 2.03728C5.52986 2.42106 5.6667 2.87226 5.6667 3.33382L7.72685 1.27331C7.90187 1.09831 8.13922 1 8.3867 1C8.63419 1 8.87154 1.09831 9.04656 1.27331L10.3569 2.58704C10.0045 2.73561 9.69391 2.96857 9.45262 3.26542C9.21134 3.56226 9.04671 3.91388 8.97324 4.28933C8.89978 4.66477 8.91972 5.05252 9.03131 5.41844C9.14291 5.78437 9.34274 6.11724 9.6132 6.38775C9.88367 6.65827 10.2165 6.85813 10.5823 6.96975C10.9482 7.08136 11.3359 7.10131 11.7113 7.02783C12.0866 6.95435 12.4382 6.78969 12.735 6.54836C13.0318 6.30703 13.2647 5.99642 13.4132 5.64389L14.7267 6.9545C14.9017 7.12955 15 7.36694 15 7.61447Z" stroke="black" stroke-width="1.5" stroke-linecap="round" stroke-linejoin="round"/>
</svg>

<svg width="16" height="16" viewBox="0 0 16 16" fill="none" xmlns="http://www.w3.org/2000/svg"><path d="M15 7.614a.933.933 0 01-.273.66l-6.454 6.453a.933.933 0 01-1.32 0l-5.68-5.679a.934.934 0 010-1.32l2.06-2.06a2.333 2.333 0 112.334-2.334l2.06-2.06a.933.933 0 011.32 0l1.31 1.313a2.334 2.334 0 103.056 3.057l1.314 1.31a.933.933 0 01.273.66z" stroke="#000" stroke-width="1.5" stroke-linecap="round" stroke-linejoin="round"/></svg>
